X:1
T:The False Knight on the Road
B:Journal of the English Folk Dance and Song Society, Dec 1958
S:"English and Scottish Ballads" by Robert Graves
F:http://www.folkinfo.org/songs
L:1/16     %
K:F
d2 |(c2A2) A2 A2 |G4 A2 c2 |d4 d2 c2 | d2 e2 f2
w:"O whare_ are ye gaun?" Quo the fuase knicht up-on the road:
d2 |(c2A2) A2 A2 |G4 A2 c2 |d4 d2 c2 | d2 e2 f2 z2 |]
w: "I'm gaun_ to the scule," Quo the wee boy, and still he stude. 
